X: 832
T: Big Dan O'Mahony
C: anon.
O: Ireland
B: Francis O'Neill: "The Dance Music of Ireland" (1907) no. 832
R: hornpipe
Z: Transcribed by Frank Nordberg - http://www.musicaviva.com
F: http://www.musicaviva.com/abc/tunes/ireland/oneill-1001/oneill-1001-083
2.abc
M: C
L: 1/8
K: Ador
(GB) | AGAB A2 (Bd) | edBA G2 (Bd) | e2ef gfea | edBA G3B |\
 AGAB A2 (Bd) | edBA G2 (ed) | B2 (AG) gdBd | c2 A2 A2 :|
(Bd) | e2ef g2 (fe) | a2 a2 g2 (ea) | edef gf(ea) | edBA G2 (Bd) |\
e2ef gfge | abag e2 (ea) | gedg edBd | c2 AA A2 (Bd) |
e2ef gfge | (3aba ag e2 (ea) | edef gf(ea) | edBA G2 (AB) |
c2 Bc d2 cd | efge a2 a2 | gfea edBd | c2 A2 A2 |]
W:
W:
W: From Musica Viva - http://www.musicaviva.com
W: the Internet center for free sheet music downloads.


